src/Assets/Icons/General/AuthComponents/openEye.svg

<svg width="144" height="100" viewBox="0 0 144 100" fill="none" xmlns="http://www.w3.org/2000/svg">
<path d="M72.4883 23.198C57.5775 23.198 45.4883 35.2872 45.4883 50.198C45.4883 65.1065 57.5775 77.198 72.4883 77.198C87.399 77.198 99.4883 65.1087 99.4883 50.198C99.4883 35.2872 87.399 23.198 72.4883 23.198ZM72.4883 68.198C62.5635 68.198 54.2811 59.927 54.2811 50.0021C54.2811 40.0772 62.3564 32.0021 72.2811 32.0021C82.2081 32.0021 90.2811 40.0774 90.2811 50.0021C90.2811 59.9269 82.4153 68.198 72.4883 68.198ZM143.955 48.956C143.903 48.7287 143.926 48.4884 143.858 48.2655C143.829 48.1712 143.771 48.1172 143.737 48.0339C143.69 47.9057 143.701 47.7549 143.636 47.6312C130.547 17.6634 102.339 0.414917 72.2792 0.414917C42.2192 0.414917 13.4462 17.6319 0.351177 47.6019C0.294927 47.7281 0.303927 47.8584 0.258786 48.0026C0.227427 48.0903 0.162177 48.1397 0.132927 48.2229C0.0631768 48.4502 0.0901768 48.6864 0.0474268 48.9159C-0.0356826 49.3209 -0.112183 49.7147 -0.112183 50.1242C-0.112183 50.5382 -0.0356826 50.9207 0.0474268 51.3323C0.0924268 51.5573 0.0633174 51.8025 0.133067 52.0185C0.162317 52.1198 0.227567 52.1625 0.258927 52.2548C0.306177 52.3785 0.294927 52.5315 0.351177 52.6553C13.4484 82.6163 41.9402 99.5835 72.0002 99.5835C102.062 99.5835 130.547 82.6523 143.64 52.6844C143.705 52.5561 143.692 52.4211 143.741 52.2794C143.773 52.2006 143.834 52.1421 143.861 52.0544C143.93 51.8339 143.908 51.5931 143.957 51.3636C144.036 50.9609 144.11 50.5671 144.11 50.1509C144.11 49.7549 144.036 49.3634 143.955 48.956ZM72 90.5837C46.5053 90.5837 21.4112 77.1444 9.08118 50.1285C21.2942 23.2028 46.7237 9.41703 72.2814 9.41703C97.8302 9.41703 122.695 23.2185 134.912 50.1578C122.704 77.0745 97.5578 90.5837 72 90.5837Z" fill="#A5A5B0"/>
</svg>

<svg xmlns="http://www.w3.org/2000/svg" width="144" height="100" fill="none"><path fill="#A5A5B0" d="M72.488 23.198c-14.91 0-27 12.09-27 27 0 14.908 12.09 27 27 27s27-12.09 27-27-12.089-27-27-27m0 45c-9.925 0-18.207-8.271-18.207-18.196s8.075-18 18-18c9.927 0 18 8.075 18 18s-7.866 18.196-17.793 18.196m71.467-19.242c-.052-.227-.029-.468-.097-.69-.029-.095-.087-.149-.121-.232-.047-.128-.036-.28-.101-.403C130.547 17.663 102.339.415 72.279.415S13.446 17.632.351 47.602c-.056.126-.047.256-.092.4-.032.088-.097.138-.126.22-.07.228-.043.464-.086.694-.083.405-.16.799-.16 1.208 0 .414.077.797.16 1.208.045.225.016.47.086.687.03.1.095.144.126.236.047.123.036.276.092.4 13.097 29.961 41.59 46.929 71.65 46.929s58.546-16.932 71.639-46.9c.065-.128.052-.263.101-.405.032-.078.093-.137.12-.225.069-.22.047-.46.096-.69.079-.403.153-.797.153-1.213 0-.396-.074-.788-.155-1.195M72 90.584c-25.495 0-50.589-13.44-62.919-40.455 12.213-26.926 37.643-40.712 63.2-40.712 25.55 0 50.414 13.801 62.631 40.74C122.704 77.076 97.558 90.585 72 90.585"/></svg>
